X: 46
T: Hand Game Guessing Song (g)
N: Derived from pawnee46.krn
O: Oklahoma, U.S.A.
N: from Pawnee Music by Frances Densmore, 1926
Z: transcribed to **kern format by David Huron, August 2000
C: Skidi and Chaui Bands, 1919
L: 1/8
M: 2/4
Q: 1/4=88
K: F clef=bass
%%linebreak <none>
C C/ !fermata!z/ [I:setbarnb 1]| 
C C C C | 
C A, A, G, | 
F, F, F, z | 
C, A, A, G, | 
G, G, G, G, | 
B, F, F, z | 
D, D, D, D, | 
F, D, D, C, | 
C, C, C, C, | 
z2G, G,/ !fermata!z/ | 
G, G, G, G, | 
G, F, F, z | 
F, F, F, F, | 
F,2 |]  



